source/svgs/bowtie/uEA1A-test.svg

<svg xmlns="http://www.w3.org/2000/svg" viewBox="0 0 448 448" enable-background="new 0 0 448 448"><path d="M424.688 322.825l-136.688-199.775v-91.05h32v-32h-192v32h32v91.05l-136.688 199.775c-16.806 24.563-18.62 56.174-4.735 82.498 13.884 26.324 40.998 42.677 70.759 42.677h269.328c29.762 0 56.875-16.353 70.76-42.677s12.07-57.935-4.736-82.498zm-232.688-189.875v-100.95h64v100.95l84.192 123.05h-232.384l84.192-123.05zm209.12 257.444c-8.457 16.034-24.329 25.606-42.456 25.606h-269.328c-18.127 0-33.999-9.572-42.456-25.606-8.457-16.033-7.395-34.537 2.841-49.498l36.192-52.896h276.173l36.192 52.896c10.237 14.959 11.299 33.464 2.842 49.498z"/></svg>

<svg xmlns="http://www.w3.org/2000/svg" viewBox="0 0 448 448"><path d="M424.688 322.825L288 123.05V32h32V0H128v32h32v91.05L23.312 322.825c-16.806 24.563-18.62 56.174-4.735 82.498C32.461 431.647 59.575 448 89.336 448h269.328c29.762 0 56.875-16.353 70.76-42.677s12.07-57.935-4.736-82.498zM192 132.95V32h64v100.95L340.192 256H107.808L192 132.95zm209.12 257.444C392.663 406.428 376.791 416 358.664 416H89.336c-18.127 0-33.999-9.572-42.456-25.606-8.457-16.033-7.395-34.537 2.841-49.498L85.913 288h276.173l36.192 52.896c10.237 14.959 11.299 33.464 2.842 49.498z"/></svg>
